assets/img/account-icon.svg

<?xml version="1.0" encoding="UTF-8"?>
<svg width="22px" height="22px" viewBox="0 0 22 22" version="1.1" xmlns="http://www.w3.org/2000/svg" xmlns:xlink="http://www.w3.org/1999/xlink">
    <title>F4B6FE60-29B3-41E1-B500-8F7D8D4CB564@svg</title>
    <g id="homepage" stroke="none" stroke-width="1" fill="none" fill-rule="evenodd">
        <g id="homepage-v3" transform="translate(-1185.000000, -97.000000)" fill="#504E4E">
            <g id="header" transform="translate(0.000000, 31.000000)">
                <g id="account-icon-header-desktop" transform="translate(1185.000000, 66.000000)">
                    <path d="M11.2266,10.4292897 C9.63233333,10.4292897 8.3358,9.08728966 8.3358,7.4388069 C8.3358,5.78956552 9.63233333,4.44832414 11.2266,4.44832414 C12.8208667,4.44832414 14.1174,5.78956552 14.1174,7.4388069 C14.1174,9.08728966 12.8208667,10.4292897 11.2266,10.4292897 M11.2266,3.09873793 C8.91293333,3.09873793 7.03046667,5.04535862 7.03046667,7.4388069 C7.03046667,9.83225517 8.91293333,11.7788759 11.2266,11.7788759 C13.5402667,11.7788759 15.4227333,9.83225517 15.4227333,7.4388069 C15.4227333,5.04535862 13.5402667,3.09873793 11.2266,3.09873793" id="Fill-1"></path>
                    <path d="M18.7740667,16.5145655 C16.8102,14.3699448 14.1093333,13.1447724 11.2266,13.1447724 C8.32406667,13.1447724 5.61,14.3836 3.6432,16.5540138 C2.6004,15.0094621 1.98366667,13.135669 1.98366667,11.1124276 C1.98366667,5.85897931 6.116,1.58415172 11.1950667,1.58415172 C16.2741333,1.58415172 20.4064667,5.85897931 20.4064667,11.1124276 C20.4064667,13.1174621 19.8007333,14.9783586 18.7740667,16.5145655 M17.7914,17.7488414 C17.7136667,17.831531 17.6322667,17.9119448 17.5523333,17.9908414 C17.4100667,18.1327034 17.2648667,18.271531 17.1145333,18.4027724 C17.0412,18.4664966 16.9649333,18.525669 16.8901333,18.5871172 C16.7258667,18.7213931 16.5601333,18.8541517 16.3870667,18.9762897 C16.3166667,19.0271172 16.2433333,19.0711172 16.1707333,19.119669 C15.9896,19.2402897 15.807,19.3593931 15.6170667,19.4678759 C15.5408,19.5111172 15.4601333,19.5482897 15.3824,19.5892552 C15.1932,19.6901517 15.0032667,19.789531 14.8067333,19.8767724 C14.7106667,19.9184966 14.6109333,19.9518759 14.5134,19.9913241 C14.3293333,20.065669 14.146,20.1407724 13.9568,20.2022207 C13.8240667,20.2454621 13.6869333,20.2765655 13.5527333,20.3137379 C13.3914,20.3569793 13.2322667,20.4070483 13.0687333,20.4427034 C12.8751333,20.483669 12.6786,20.5094621 12.4828,20.537531 C12.3706,20.5534621 12.2598667,20.5784966 12.1462,20.5906345 C11.8316,20.6240138 11.5148,20.6414621 11.1950667,20.6414621 C10.8753333,20.6414621 10.5592667,20.6240138 10.2461333,20.5906345 C10.153,20.5807724 10.0628,20.5602897 9.9704,20.5473931 C9.75406667,20.5170483 9.537,20.4882207 9.32433333,20.4434621 C9.17546667,20.4116 9.03246667,20.3653241 8.88653333,20.3258759 C8.7362,20.2864276 8.5844,20.2522897 8.437,20.2037379 C8.25513333,20.1453241 8.07986667,20.0717379 7.90313333,20.0019448 C7.79753333,19.9602207 7.6912,19.9245655 7.5878,19.8790483 C7.3942,19.7933241 7.20866667,19.6947034 7.0224,19.5960828 C6.941,19.5543586 6.8574,19.5164276 6.7782,19.4709103 C6.589,19.3639448 6.40786667,19.2448414 6.22746667,19.1242207 C6.15486667,19.0764276 6.0808,19.0324276 6.0104,18.9823586 C5.8366,18.8602207 5.6716,18.7267034 5.50733333,18.5924276 C5.434,18.5324966 5.35773333,18.4756 5.28586667,18.4133931 C5.13406667,18.2806345 4.9896,18.1410483 4.84586667,17.9991862 C4.7674,17.9210483 4.6882,17.8451862 4.61193333,17.7647724 C4.56206667,17.711669 4.51733333,17.6547724 4.46746667,17.6009103 C6.19593333,15.6193931 8.62913333,14.4943586 11.2266,14.4943586 C13.8064667,14.4943586 16.2272,15.6072552 17.9534667,17.5652552 C17.8992,17.6259448 17.8471333,17.689669 17.7914,17.7488414 M21.7110667,11.1124276 C21.7110667,5.11477241 16.9935333,0.234565517 11.1950667,0.234565517 C5.3966,0.234565517 0.679066667,5.11477241 0.679066667,11.1124276 C0.679066667,13.5460828 1.46446667,15.7870483 2.77493333,17.601669 L2.75513333,17.6259448 L3.09393333,18.0484966 C3.22373333,18.2108414 3.36746667,18.3557379 3.50533333,18.5089793 C3.60213333,18.6159448 3.69306667,18.7274621 3.7928,18.8298759 C3.94753333,18.9891862 4.1118,19.1348414 4.27533333,19.2827724 C4.38093333,19.3791172 4.48506667,19.4777379 4.59506667,19.5702897 C4.76226667,19.7098759 4.93386667,19.8388414 5.10693333,19.9670483 C5.2272,20.0550483 5.34673333,20.1422897 5.46993333,20.2264966 C5.64226667,20.3418069 5.81753333,20.4510483 5.99573333,20.5564966 C6.13506667,20.6391862 6.27586667,20.7165655 6.41813333,20.7924276 C6.59046667,20.8834621 6.7628,20.9714621 6.9388,21.0518759 C7.1038,21.1277379 7.27173333,21.1952552 7.4404,21.2620138 C7.6054,21.3272552 7.76746667,21.3940138 7.9354,21.4501517 C8.1312,21.5169103 8.33286667,21.5700138 8.5338,21.6246345 C8.6834,21.6656 8.83006667,21.7111172 8.98186667,21.7444966 C9.22166667,21.7976 9.4666,21.8347724 9.71153333,21.8704276 C9.8318,21.8878759 9.9506,21.913669 10.0716,21.9273241 C10.4412,21.967531 10.8152,21.9918069 11.1950667,21.9918069 C11.5756667,21.9918069 11.9504,21.967531 12.3214667,21.9273241 C12.4468667,21.9129103 12.5686,21.8863586 12.6932667,21.8681517 C12.9352667,21.8324966 13.1758,21.7960828 13.4119333,21.7437379 C13.5688667,21.7088414 13.7221333,21.6610483 13.8768667,21.6193241 C14.0726667,21.5654621 14.2677333,21.5131172 14.4591333,21.4478759 C14.6329333,21.3902207 14.8016,21.3219448 14.971,21.253669 C15.1345333,21.1884276 15.2973333,21.1224276 15.4564667,21.0496 C15.6376,20.9661517 15.8143333,20.8758759 15.9903333,20.7825655 C16.1296667,20.7082207 16.2653333,20.6323586 16.401,20.5519448 C16.5828667,20.4449793 16.7618,20.3334621 16.9370667,20.2151172 C17.0573333,20.1339448 17.1732,20.0467034 17.2912667,19.9602207 C17.4672667,19.8304966 17.6418,19.6992552 17.8112,19.5581517 C17.9197333,19.4671172 18.0216667,19.3684966 18.1265333,19.2729103 C18.2908,19.1227034 18.4565333,18.9762897 18.6127333,18.8147034 C18.7139333,18.711531 18.8041333,18.5984966 18.9009333,18.4900138 C19.0446667,18.3299448 19.195,18.1767034 19.3306667,18.0060138 L19.6665333,17.5811862 L19.6474667,17.5569103 C20.9381333,15.7506345 21.7110667,13.5263586 21.7110667,11.1124276" id="Fill-3"></path>
                </g>
            </g>
        </g>
    </g>
</svg>

<svg width="22" height="22" xmlns="http://www.w3.org/2000/svg"><g fill="#504E4E" fill-rule="evenodd"><path d="M11.227 10.43c-1.595 0-2.891-1.343-2.891-2.991 0-1.65 1.296-2.99 2.89-2.99 1.595 0 2.891 1.34 2.891 2.99 0 1.648-1.296 2.99-2.89 2.99m0-7.33c-2.314 0-4.197 1.946-4.197 4.34 0 2.393 1.883 4.34 4.197 4.34 2.313 0 4.196-1.947 4.196-4.34 0-2.394-1.883-4.34-4.196-4.34"/><path d="M18.774 16.515c-1.964-2.145-4.665-3.37-7.547-3.37-2.903 0-5.617 1.239-7.584 3.409a9.697 9.697 0 0 1-1.66-5.442c0-5.253 4.133-9.528 9.212-9.528 5.08 0 9.211 4.275 9.211 9.528a9.698 9.698 0 0 1-1.632 5.403m-.983 1.234c-.077.083-.159.163-.239.242-.142.142-.287.28-.437.412-.074.063-.15.123-.225.184-.164.134-.33.267-.503.39-.07.05-.144.094-.216.143-.181.12-.364.24-.554.348-.076.043-.157.08-.235.121-.189.101-.379.2-.575.288-.096.041-.196.075-.294.114-.184.075-.367.15-.556.211-.133.043-.27.075-.404.112-.162.043-.32.093-.484.129-.194.04-.39.066-.586.095-.112.015-.223.04-.337.053a9.005 9.005 0 0 1-1.9 0c-.093-.01-.183-.03-.276-.044-.216-.03-.433-.059-.646-.104-.149-.031-.292-.078-.437-.117-.15-.04-.303-.074-.45-.122-.182-.059-.357-.132-.534-.202-.105-.042-.212-.077-.315-.123-.194-.086-.38-.184-.566-.283-.081-.042-.165-.08-.244-.125a8.693 8.693 0 0 1-.55-.347c-.073-.048-.147-.092-.218-.142a8.753 8.753 0 0 1-.503-.39c-.073-.06-.15-.116-.221-.179a10.014 10.014 0 0 1-.44-.414c-.079-.078-.158-.154-.234-.234-.05-.053-.095-.11-.145-.164 1.729-1.982 4.162-3.107 6.76-3.107 2.58 0 5 1.113 6.726 3.071-.054.06-.106.125-.162.184m3.92-6.637c0-5.997-4.717-10.877-10.516-10.877C5.397.235.68 5.115.68 11.112c0 2.434.785 4.675 2.096 6.49l-.02.024.339.422c.13.163.273.308.411.461.097.107.188.218.288.32.155.16.319.306.482.454.106.096.21.195.32.287a13.85 13.85 0 0 0 .875.656 11.2 11.2 0 0 0 1.469.826c.165.076.333.143.501.21.165.065.327.132.495.188.196.067.398.12.599.175.15.04.296.086.448.12.24.053.485.09.73.125.12.018.239.044.36.057.37.04.743.065 1.123.065s.755-.024 1.126-.065c.126-.014.248-.04.372-.059.242-.036.483-.072.719-.124.157-.035.31-.083.465-.125.196-.054.39-.106.582-.171.174-.058.343-.126.512-.194.164-.066.326-.132.485-.204a10.686 10.686 0 0 0 .945-.498c.182-.107.36-.219.536-.337.12-.081.236-.168.354-.255.176-.13.35-.26.52-.402.109-.09.21-.19.316-.285.164-.15.33-.297.486-.458.1-.103.191-.217.288-.325.144-.16.294-.313.43-.484l.336-.425-.02-.024a11.051 11.051 0 0 0 2.064-6.445"/></g></svg>
